src/images/circuits/dutch.svg

<svg width="37" height="31" viewBox="0 0 37 31" fill="none" xmlns="http://www.w3.org/2000/svg">
<path d="M10.5211 1.52012C10.1358 2.29014 4.64206 15.7514 1.51003 23.4501C1.17482 24.2741 0.95138 25.1553 1.06105 26.038C1.74389 31.5342 7.95503 30.6662 9.57686 29.9228C11.308 29.1294 10.3175 25.8292 10.0901 25.0716L10.0854 25.0558C9.86743 24.3294 8.34194 19.0265 9.6495 18.3727C10.9571 17.719 11.2476 20.6973 12.2646 19.7529C13.2816 18.8086 18.4392 17.0652 20.4005 16.4841C22.3618 15.9029 28.3911 16.1208 29.4081 16.3388C30.4251 16.5567 31.0062 17.719 30.643 18.5907C30.2798 19.4624 27.3741 20.0435 26.5024 20.0435C25.6307 20.0435 24.3232 20.9879 23.8873 22.2954C23.4515 23.603 29.1902 25.2011 30.4977 24.9832C31.8053 24.7652 31.8779 23.5303 32.6044 22.1501C33.3308 20.7699 35.5827 18.6633 36.0185 16.4841C36.4544 14.3048 33.7666 12.9246 32.7496 12.4887C31.7327 12.0529 27.0836 12.1255 26.2119 12.3435C25.3402 12.5614 22.7251 14.3774 20.8364 14.8133C18.9477 15.2491 16.042 14.3774 13.9354 14.0142C11.8288 13.651 9.57686 15.5397 8.05138 15.6124C6.5259 15.685 6.59854 14.0869 7.25232 13.5057C7.90609 12.9246 10.2306 12.4887 10.9571 11.835C11.6835 11.1812 11.4655 7.47645 11.6108 6.96796C11.7561 6.45946 12.7005 4.78928 13.4995 2.82795C14.2986 0.866617 11.0297 0.503407 10.5211 1.52012Z" stroke="#FF0000"/>
</svg>

<svg width="37" height="31" fill="none" xmlns="http://www.w3.org/2000/svg"><path d="M10.521 1.52c-.385.77-5.879 14.231-9.011 21.93-.335.824-.559 1.705-.449 2.588.683 5.496 6.894 4.628 8.516 3.885 1.731-.794.74-4.094.513-4.851l-.005-.016c-.218-.727-1.743-6.03-.436-6.683 1.308-.654 1.599 2.324 2.616 1.38 1.017-.944 6.174-2.688 8.136-3.269 1.96-.581 7.99-.363 9.007-.145 1.017.218 1.598 1.38 1.235 2.252-.363.871-3.269 1.453-4.14 1.453-.872 0-2.18.944-2.616 2.251-.436 1.308 5.303 2.906 6.61 2.688 1.308-.218 1.38-1.453 2.107-2.833.727-1.38 2.979-3.487 3.415-5.666.435-2.18-2.252-3.56-3.27-3.995-1.016-.436-5.665-.364-6.537-.146-.872.218-3.487 2.034-5.376 2.47-1.888.436-4.794-.436-6.9-.799-2.107-.363-4.36 1.526-5.885 1.598-1.525.073-1.452-1.525-.799-2.106.654-.581 2.979-1.017 3.705-1.671.726-.654.508-4.359.654-4.867.145-.509 1.09-2.179 1.888-4.14.8-1.961-2.47-2.325-2.978-1.308Z" stroke="red"/></svg>
